X:107
T:My Bonny Brunette
T:Ho r\`o mo nighean don bh\`oidheach
R:March?
S:Simon Fraser Collection
N:No.138
O:Scottish
M:C
L:1/8
Q:1/4=140
K:G
c|B>AG>F [G,2E2] E>F|G>AB>^c dBBg/f/|eBB^G (A2 A)B/c/|
B>AG>F [G,3E3] c|B>AG>F [G,2E2] E>F|G>AB>^c dBBg/f/|
eBB^G (A2 A)B/c/|B>AG>F [G,3E3]:|
|:B|e>f g>f eBB~^d|ef/g/ f>^d e2 ^dc|B>GA>G g>fef/g/|eBB^G A2 AB/c/|
B>AG>F [G,3E3] F|G>AB>^c dBBg/f/|eBB^G A2 AB/c/|B>AG>F [G,3E3]:|

